packages/katcn/src/icons/svg/bulb-solid.svg

<svg width="24" height="24" viewBox="0 0 24 24" fill="none" xmlns="http://www.w3.org/2000/svg">
<path d="M19.8503 7.38123C19.339 4.32512 16.7825 1.76194 13.6124 1.17043C11.2604 0.67751 8.80621 1.26901 6.96553 2.74778C5.0226 4.22654 4 6.39539 4 8.66283C4 10.7331 4.81808 12.6062 6.35197 14.085C7.06779 14.775 7.47683 15.5637 7.68135 16.451L7.88587 17.7326C8.19265 19.0142 9.3175 20 10.7491 20H13.2034C14.5327 20 15.7599 19.0142 16.0666 17.7326L16.3734 16.451C16.5779 15.5637 16.987 14.775 17.7028 14.085C19.5435 12.3104 20.3616 9.84583 19.8503 7.38123Z" fill="black"/>
<path d="M14.8267 21H9.06667C8.42667 21 8 21.4 8 22C8 22.6 8.42667 23 9.06667 23H14.9333C15.5733 23 16 22.6 16 22C16 21.4 15.4667 21 14.8267 21Z" fill="black"/>
</svg>

<svg xmlns="http://www.w3.org/2000/svg" fill="none" viewBox="0 0 24 24"><path fill="#000" d="M19.85 7.381c-.511-3.056-3.068-5.62-6.238-6.21a8.02 8.02 0 0 0-6.646 1.577C5.023 4.227 4 6.395 4 8.663c0 2.07.818 3.943 2.352 5.422a4.63 4.63 0 0 1 1.33 2.366l.204 1.282C8.193 19.014 9.318 20 10.749 20h2.454c1.33 0 2.557-.986 2.864-2.267l.306-1.282a4.63 4.63 0 0 1 1.33-2.366c1.84-1.775 2.659-4.24 2.147-6.704M14.827 21h-5.76C8.427 21 8 21.4 8 22s.427 1 1.067 1h5.866c.64 0 1.067-.4 1.067-1s-.533-1-1.173-1"/></svg>
